Adwaita++/mimetypes/16/text-markdown.svg

<svg height="16" width="16" xmlns="http://www.w3.org/2000/svg">
  <path d="m1.1425781 3.3574219c-.62325998 0-1.1425781.5193181-1.1425781 1.1425781v6.857422c0 .62326.51931812 1.142578 1.1425781 1.142578h13.7148439c.62326 0 1.142578-.519318 1.142578-1.142578v-6.857422c0-.62326-.519318-1.1425781-1.142578-1.1425781zm0 1.1425781h13.7148439v6.857422h-13.7148439zm1.7148438 1.1425781v4.5722659h1.1425781v-2.7871096l1.4277344 1.7871094 1.4296875-1.7871094v2.7871096h1.1425781v-4.5722659h-1.1425781l-1.4296875 1.7851563-1.4277344-1.7851563zm8.0000001 0v2.2851563h-1.1425782l1.7128902 2.2871096 1.714844-2.2871096h-1.142578v-2.2851563z" fill="#474747"/>
</svg>

<svg xmlns="http://www.w3.org/2000/svg" width="16" height="16" version="1.1">
 <g transform="translate(-472,-180)">
  <path style="fill:#474747" d="M 1.1425781 3.3574219 C 0.51931812 3.3574219 0 3.87674 0 4.5 L 0 11.357422 C 0 11.980682 0.51931812 12.5 1.1425781 12.5 L 14.857422 12.5 C 15.480682 12.5 16 11.980682 16 11.357422 L 16 4.5 C 16 3.87674 15.480682 3.3574219 14.857422 3.3574219 L 1.1425781 3.3574219 z M 1.1425781 4.5 L 14.857422 4.5 L 14.857422 11.357422 L 1.1425781 11.357422 L 1.1425781 4.5 z M 2.8574219 5.6425781 L 2.8574219 10.214844 L 4 10.214844 L 4 7.4277344 L 5.4277344 9.2148438 L 6.8574219 7.4277344 L 6.8574219 10.214844 L 8 10.214844 L 8 5.6425781 L 6.8574219 5.6425781 L 5.4277344 7.4277344 L 4 5.6425781 L 2.8574219 5.6425781 z M 10.857422 5.6425781 L 10.857422 7.9277344 L 9.7148438 7.9277344 L 11.427734 10.214844 L 13.142578 7.9277344 L 12 7.9277344 L 12 5.6425781 L 10.857422 5.6425781 z" transform="translate(472,180)"/>
 </g>
</svg>
